!!!id: BC053
!!!page: 66
!!!COM: F. SCHUBERT
!!!PTR@@FR: Les 100 plus belles chansons
!!!OTL@@FR: Ave Maria
!!!PUB: La Bonne Chanson, inc.
!!!PDT: 2011
!!!YEM: On ne peut reproduire, enregistrer ou diffuser en tout ou en partie le présent ouvrage, sous quelque procédé que ce soit, électronique, mécanique, photographique, sonore, magnétique ou autre, sans avoir obtenu au préalable l'autorisation écrite de l'éditrice.
!!!SMA: 2012 Bibliothèque nationale du Québec; Biblothèque nationale du Canada
!!!AGN-type: Chanson
!!!AGN-Laforte: 1:11(9)
!!!AGN-rhyme: regular
**kern	**dynam	**text
*clefG2	*	*
*k[b-e-]	*	*
*B-:	*	*
!!LO:TX:a:t=Très lent 
!words are not showing	!	!
*M4/4	*	*
*met(c)	*	*v:1
*	*	*pline:1
=1	=1	=1
1r	.	.
=2	=2	=2
1r	.	.
=3	=3	=3
4b-.	<	A-
16a	(	-ve
16b-	[	Ma-
(4dd..	>	-ri-
16cc)	]	.
=4	=4	=4
4b-	.	-a!
4r	.	.
*	*	*pline:2
(4cc	.	Rei-
q16ddL	.	.
q16ccJ)	.	.
(16b-L	.	-ne
16aJ)	.	.
(16gL	.	des
16aJ)	.	.
!!linebreak:original
=5	=5	=5
4b-	.	cieux,
8r	.	.
*	*	*pline:3
8dd	.	Vers
8dd.	.	Toi
(32ccL	.	s'é-
32b-J)	<	.
16a	(	-lè-
16g	(	-ve
16dd.	(	ma
32ee	(	pri-
.	[	-
=6	=6	=6
(4dd	>	-è-
8cc.#)	)	-re,
*	*	*pline:4
16a	]	En-
8.cc	.	-tends
16b-	.	la
*Xbrackettup	*	*
((24aL	.	voix
24ccJ)	.	.
24dd)	.	de
((24ee-L	.	ton
24ccJ)	.	.
24a)	.	en-
!!linebreak:original
=7	=7	=7
[4b-	.	-fant;
8b-]	.	.
*	*	*pline:5
16dd	.	Con-
16cc	.	-fi-
8.cc	.	-ant,
16a	<	j'im-
((24gL	(	-plo-
24bJ)	(	.
24dd)	(	-re
((24ffL	(	ton
24ddJ)	(	.
24b)	(	se-
.	[	-
=8	=8	=8
[4cc	>	-cours:
(24cc]	)	.
*	*	*pline:6
24g	]	Don-
24a)	.	-ne-
(((24b-XL	.	-moi
q16ccL	.	.
q16b-J	.	.
24aJ)	.	.
24g)	.	la
!the tuplet should be next to the beam	!	!
4f	.	paix!
8r	.	.
*	*	*pline:7
4f	.	Mon
!!linebreak:original
=9	=9	=9
8cc.	.	cœur
16cc	.	meur-
16.cc	.	-tri
32b	.	par
16.cc	.	la
32dd	.	mi-
(16.ccL	.	-sè-
32ddJ)	.	.
8b-	.	-re
8r	.	.
*	*	*pline:8
8b-	.	N'a
=10	=10	=10
8.cc	.	plus
16cc	.	d'es-
((24ccL	<	-poir
24bJ)	(	.
24cc)	(	qu'en
.	[	.
((24ee-L	.	ton
24ddJ)	.	.
24cc)	>	a-
4b-	]	-mour.
8r	.	.
*	*	*pline:9
8b-	.	Pi-
!!linebreak:original
=11	=11	=11
8.cc	<	-tié!
16cc	(	Pi-
16.dd	(	-tié!
32dd	(	O
((24ddmL	[	bon-
24ccJ)	.	.
24dd)	.	-ne
(16.ffL	>	Mè-
32ee-J)	)	.
8ee-	]	-re,
8.r	.	.
*	*	*pline:10
16g	.	Con-
=12	=12	=12
(q8dd	<	.
8.cc~)	(	-duis
16cc	(	mes
((24b-L	[	pas
24aJ)	.	.
24b-)	.	vers
((24dd-L	.	ton
24ccJ)	>	.
24b-)	)	Jé-
[4cc	]	-sus.
8cc]	.	.
8r	.	.
!!linebreak:original
=13	=13	=13
*	*	*pline:11
4.b-	<	A-
16a	[	-ve
16b-	.	Ma-
(4..dd	>	-ri-
16cc)	]	.
=14	=14	=14
4b-/	.	-a!
4r	.	.
2r	.	.
=15	=15	=15
!dot added to prevent multiple measure rests	!	!
.	.	.
1r	.	.
=16	=16	=16
.	.	.
1r	.	.
=17	=17	=17
1r	.	.
==	==	==
*-	*-	*-
!!!EED:Jason Lau
!!!EEV:2025/07/22
